icons/plus-o.svg

<svg width="24" height="24" viewBox="0 0 24 24" xmlns="http://www.w3.org/2000/svg">
    <path fill-rule="evenodd"
        d="M11.25 12.8399L11.25 18.2738H12.75L12.75 12.8399L18.1839 12.8399L18.1839 11.3399L12.75 11.3399L12.75 5.90601H11.25L11.25 11.3399L5.81612 11.3399L5.81612 12.8399L11.25 12.8399Z" />
</svg>

<svg xmlns="http://www.w3.org/2000/svg" width="24" height="24" viewBox="0 0 24 24">
    <path d="M11.25 12.84v5.434h1.5V12.84h5.434v-1.5H12.75V5.906h-1.5v5.434H5.816v1.5h5.434z" />
</svg>
